X: 18315
T: Humours Of Tullyknockbrine, The
R: reel
M: 4/4
K: Gmajor
G2 dG BdGB|dGBd ecAF|G2 dc Bcde|1 dBcA BGAF:|2 dBcA BG G2||
egfg egfe|d2 fd Adfd|egfg efga|bgaf geed|
efga bge^c|defg afdB|G2 GA Bcde|dBcA BG G2||

